src/images/Ishan/Distribution.svg

<svg enable-background="new 0 0 100 100" viewBox="0 0 100 100" xmlns="http://www.w3.org/2000/svg"><g fill="#eb0029"><path d="m27.5 50.5c0-5.5-4.5-10-10-10s-10 4.5-10 10 4.5 10 10 10 10-4.5 10-10zm-10 7c-3.9 0-7-3.1-7-7s3.1-7 7-7 7 3.1 7 7-3.1 7-7 7z"/><path d="m65.5 31.5c5.5 0 10-4.5 10-10s-4.5-10-10-10-10 4.5-10 10 4.5 10 10 10zm0-17c3.9 0 7 3.1 7 7s-3.1 7-7 7-7-3.1-7-7 3.1-7 7-7z"/><path d="m66.5 67.5c-5.5 0-10 4.5-10 10s4.5 10 10 10 10-4.5 10-10-4.5-10-10-10zm0 17c-3.9 0-7-3.1-7-7s3.1-7 7-7 7 3.1 7 7-3.1 7-7 7z"/><path d="m82.5 39.5c-5 0-9.2 3.7-9.9 8.5h-10.2c-.7-6.5-6.2-11.5-12.9-11.5-2.2 0-4.3.6-6.1 1.5l-5-8.4c2.5-1.8 4.2-4.8 4.2-8.1 0-5.5-4.5-10-10-10s-10 4.5-10 10 4.5 10 10 10c1.1 0 2.2-.2 3.1-.5l5.3 8.8c-2.7 2.4-4.4 5.9-4.4 9.7 0 4.4 2.2 8.2 5.5 10.6l-5.5 8.9c-1-.3-2-.5-3.1-.5-5.5 0-10 4.5-10 10s4.5 10 10 10 10-4.5 10-10c0-3.3-1.7-6.3-4.2-8.1l5.3-8.8c1.5.6 3.2 1 4.9 1 6.7 0 12.2-5 12.9-11.5h10.2c.7 4.8 4.9 8.5 9.9 8.5 5.5 0 10-4.5 10-10 0-5.6-4.5-10.1-10-10.1zm-57-18c0-3.9 3.1-7 7-7s7 3.1 7 7-3.1 7-7 7-7-3.1-7-7zm8 64c-3.9 0-7-3.1-7-7s3.1-7 7-7 7 3.1 7 7-3.1 7-7 7zm16-26c-5.5 0-10-4.5-10-10s4.5-10 10-10 10 4.5 10 10-4.5 10-10 10zm33-3c-3.9 0-7-3.1-7-7s3.1-7 7-7 7 3.1 7 7-3.1 7-7 7z"/></g></svg>

<?xml version="1.0" encoding="utf-8"?>
<!-- Generator: Adobe Illustrator 24.2.0, SVG Export Plug-In . SVG Version: 6.00 Build 0)  -->
<svg version="1.1" id="Layer_1" xmlns="http://www.w3.org/2000/svg" xmlns:xlink="http://www.w3.org/1999/xlink" x="0px" y="0px"
	 viewBox="0 0 100 100" style="enable-background:new 0 0 100 100;" xml:space="preserve">
<style type="text/css">
	.st0{fill:#EB0029;}
</style>
<g>
	<path class="st0" d="M27.5,50.5c0-5.5-4.5-10-10-10c-5.5,0-10,4.5-10,10c0,5.5,4.5,10,10,10C23,60.5,27.5,56,27.5,50.5z M17.5,57.5
		c-3.9,0-7-3.1-7-7s3.1-7,7-7s7,3.1,7,7S21.4,57.5,17.5,57.5z"/>
	<path class="st0" d="M65.5,31.5c5.5,0,10-4.5,10-10c0-5.5-4.5-10-10-10s-10,4.5-10,10C55.5,27,60,31.5,65.5,31.5z M65.5,14.5
		c3.9,0,7,3.1,7,7s-3.1,7-7,7s-7-3.1-7-7S61.6,14.5,65.5,14.5z"/>
	<path class="st0" d="M66.5,67.5c-5.5,0-10,4.5-10,10c0,5.5,4.5,10,10,10c5.5,0,10-4.5,10-10C76.5,72,72,67.5,66.5,67.5z M66.5,84.5
		c-3.9,0-7-3.1-7-7s3.1-7,7-7s7,3.1,7,7S70.4,84.5,66.5,84.5z"/>
	<path class="st0" d="M82.5,39.5c-5,0-9.2,3.7-9.9,8.5H62.4c-0.7-6.5-6.2-11.5-12.9-11.5c-2.2,0-4.3,0.6-6.1,1.5l-5-8.4
		c2.5-1.8,4.2-4.8,4.2-8.1c0-5.5-4.5-10-10-10c-5.5,0-10,4.5-10,10c0,5.5,4.5,10,10,10c1.1,0,2.2-0.2,3.1-0.5l5.3,8.8
		c-2.7,2.4-4.4,5.9-4.4,9.7c0,4.4,2.2,8.2,5.5,10.6L36.6,69c-1-0.3-2-0.5-3.1-0.5c-5.5,0-10,4.5-10,10c0,5.5,4.5,10,10,10
		c5.5,0,10-4.5,10-10c0-3.3-1.7-6.3-4.2-8.1l5.3-8.8c1.5,0.6,3.2,1,4.9,1c6.7,0,12.2-5,12.9-11.5h10.2c0.7,4.8,4.9,8.5,9.9,8.5
		c5.5,0,10-4.5,10-10C92.5,44,88,39.5,82.5,39.5z M25.5,21.5c0-3.9,3.1-7,7-7s7,3.1,7,7s-3.1,7-7,7S25.5,25.4,25.5,21.5z M33.5,85.5
		c-3.9,0-7-3.1-7-7s3.1-7,7-7s7,3.1,7,7S37.4,85.5,33.5,85.5z M49.5,59.5c-5.5,0-10-4.5-10-10s4.5-10,10-10s10,4.5,10,10
		S55,59.5,49.5,59.5z M82.5,56.5c-3.9,0-7-3.1-7-7s3.1-7,7-7s7,3.1,7,7S86.4,56.5,82.5,56.5z"/>
</g>
</svg>
